dist/svg/object-based/checkout-cart_16.svg

<svg xmlns="http://www.w3.org/2000/svg" viewBox="0 0 16 16"><path d="M13 4l-3-3-1 1 2 2H5l2-2-1-1-3 3H0v3h1l1 8h12l1-8h1V4h-3zm-6 9H5V7h2v6zm4 0H9V7h2v6z"/></svg>

<?xml version="1.0" encoding="iso-8859-1"?>
<!-- Generator: Adobe Illustrator 20.0.0, SVG Export Plug-In . SVG Version: 6.00 Build 0)  -->
<svg version="1.1" id="Layer_1" xmlns="http://www.w3.org/2000/svg" xmlns:xlink="http://www.w3.org/1999/xlink" x="0px" y="0px"
	 viewBox="0 0 16 16" style="enable-background:new 0 0 16 16;" xml:space="preserve">
<path d="M13,4l-3-3L9,2l2,2H5l2-2L6,1L3,4H0v3h1l1,8h12l1-8h1V4H13z M7,13H5V7h2V13z M11,13H9V7h2V13z"/>
</svg>
